public/images/rightwhitearrow.svg

<svg xmlns:xlink="http://www.w3.org/1999/xlink" xmlns="http://www.w3.org/2000/svg" width="21" height="12" viewBox="0 0 21 12" fill="none">
<path d="M0 6L19.9999 6" stroke="#F0F1EC" stroke-linejoin="round"/>
<path d="M20 6.50016C20.2761 6.50016 20.5 6.2763 20.5 6.00016C20.5 5.72402 20.2761 5.50016 20 5.50016V6.50016ZM20 6.00016C20 5.50016 20.0002 5.50016 20.0004 5.50016C20.0004 5.50016 20.0007 5.50016 20.0008 5.50016C20.001 5.50016 20.0012 5.50016 20.0014 5.50016C20.0018 5.50016 20.002 5.50017 20.0022 5.50017C20.0024 5.50017 20.0022 5.50017 20.0015 5.50016C20.0002 5.50014 19.9969 5.50008 19.9918 5.49993C19.9816 5.49962 19.964 5.49894 19.9393 5.49743C19.89 5.49441 19.8124 5.4881 19.7092 5.4749C19.5027 5.4485 19.1935 5.39458 18.802 5.28445C18.0197 5.06443 16.9051 4.6191 15.6209 3.71609L15.0457 4.53411C16.4281 5.50616 17.6469 5.99836 18.5312 6.2471C18.973 6.37136 19.3305 6.43463 19.5824 6.46683C19.7083 6.48292 19.8078 6.49126 19.8783 6.49557C19.9135 6.49772 19.9415 6.49887 19.9619 6.49948C19.9721 6.49978 19.9804 6.49995 19.9867 6.50005C19.9899 6.5001 19.9926 6.50012 19.9948 6.50014C19.9959 6.50015 19.9969 6.50015 19.9978 6.50016C19.9982 6.50016 19.9986 6.50016 19.9989 6.50016C19.9991 6.50016 19.9994 6.50016 19.9995 6.50016C19.9997 6.50016 20 6.50016 20 6.00016ZM15.6209 3.71609C14.3143 2.79737 13.5089 2.03965 13.0357 1.52202C12.799 1.26319 12.6453 1.06421 12.5533 0.934862C12.5073 0.870176 12.4767 0.822854 12.4589 0.79411C12.45 0.779736 12.4443 0.77 12.4415 0.765053C12.44 0.762579 12.4393 0.761301 12.4393 0.761238C12.4393 0.761207 12.4394 0.761479 12.4398 0.762058C12.4399 0.762347 12.4401 0.762712 12.4403 0.763155C12.4405 0.763376 12.4406 0.763617 12.4407 0.763876C12.4408 0.764006 12.4409 0.764215 12.4409 0.76428C12.4411 0.764494 12.4412 0.764713 12 1C11.5588 1.23529 11.5589 1.23552 11.5591 1.23575C11.5591 1.23583 11.5592 1.23607 11.5593 1.23624C11.5595 1.23657 11.5597 1.23693 11.5599 1.2373C11.5603 1.23805 11.5607 1.23887 11.5612 1.23977C11.5622 1.24156 11.5634 1.24366 11.5647 1.24605C11.5673 1.25083 11.5707 1.2568 11.5748 1.26394C11.583 1.27822 11.5942 1.29717 11.6088 1.32064C11.6378 1.36758 11.6802 1.43257 11.7383 1.51437C11.8547 1.678 12.0343 1.90872 12.2976 2.19678C12.8244 2.77294 13.6856 3.57777 15.0457 4.53411L15.6209 3.71609Z" fill="#F0F1EC"/>
<path d="M20 6.5C20.2761 6.5 20.5 6.27614 20.5 6C20.5 5.72386 20.2761 5.5 20 5.5V6.5ZM20 6C20 5.5 19.9997 5.5 19.9995 5.5C19.9994 5.5 19.9991 5.5 19.9989 5.5C19.9986 5.5 19.9982 5.5 19.9978 5.5C19.9969 5.50001 19.9959 5.50001 19.9948 5.50002C19.9926 5.50004 19.9899 5.50006 19.9867 5.50011C19.9804 5.50021 19.9721 5.50038 19.9619 5.50068C19.9415 5.50129 19.9135 5.50244 19.8783 5.50459C19.8078 5.5089 19.7083 5.51724 19.5824 5.53333C19.3305 5.56553 18.973 5.6288 18.5312 5.75306C17.6469 6.0018 16.4281 6.494 15.0457 7.46605L15.6209 8.28407C16.9051 7.38106 18.0197 6.93573 18.802 6.71571C19.1935 6.60558 19.5027 6.55166 19.7092 6.52526C19.8124 6.51206 19.89 6.50575 19.9393 6.50273C19.964 6.50122 19.9816 6.50054 19.9918 6.50023C19.9969 6.50008 20.0002 6.50002 20.0015 6.5C20.0022 6.49999 20.0024 6.49999 20.0022 6.49999C20.002 6.49999 20.0018 6.5 20.0014 6.5C20.0012 6.5 20.001 6.5 20.0008 6.5C20.0007 6.5 20.0004 6.5 20.0004 6.5C20.0002 6.5 20 6.5 20 6ZM15.0457 7.46605C13.6856 8.42239 12.8244 9.22722 12.2976 9.80338C12.0343 10.0914 11.8547 10.3222 11.7383 10.4858C11.6802 10.5676 11.6378 10.6326 11.6088 10.6795C11.5942 10.703 11.583 10.7219 11.5748 10.7362C11.5707 10.7434 11.5673 10.7493 11.5647 10.7541C11.5634 10.7565 11.5622 10.7586 11.5612 10.7604C11.5607 10.7613 11.5603 10.7621 11.5599 10.7629C11.5597 10.7632 11.5595 10.7636 11.5593 10.7639C11.5592 10.7641 11.5591 10.7643 11.5591 10.7644C11.5589 10.7646 11.5588 10.7649 12 11.0002C12.4412 11.2354 12.4411 11.2357 12.4409 11.2359C12.4409 11.2359 12.4408 11.2362 12.4407 11.2363C12.4406 11.2365 12.4405 11.2368 12.4403 11.237C12.4401 11.2374 12.4399 11.2378 12.4398 11.2381C12.4394 11.2387 12.4393 11.239 12.4393 11.2389C12.4393 11.2389 12.44 11.2376 12.4415 11.2351C12.4443 11.2302 12.45 11.2204 12.4589 11.206C12.4767 11.1773 12.5073 11.13 12.5533 11.0653C12.6453 10.936 12.799 10.737 13.0357 10.4781C13.5089 9.96051 14.3143 9.20279 15.6209 8.28407L15.0457 7.46605Z" fill="#F0F1EC"/>
</svg>

<svg xmlns="http://www.w3.org/2000/svg" width="21" height="12" fill="none"><path stroke="#F0F1EC" stroke-linejoin="round" d="M0 6h20"/><path fill="#F0F1EC" d="M20 6.5a.5.5 0 0 0 0-1zm0-.5v-.5h.002l-.063-.003a4 4 0 0 1-.23-.022 6.4 6.4 0 0 1-.907-.19c-.782-.22-1.897-.666-3.181-1.569l-.575.818c1.382.972 2.6 1.464 3.485 1.713.442.124.8.188 1.051.22a5 5 0 0 0 .405.033H20zm-4.38-2.284c-1.306-.919-2.111-1.676-2.584-2.194a6 6 0 0 1-.483-.587A3 3 0 0 1 12.44.76v.001l.001.001v.001L12 1l-.44.237.001.003.004.006.044.075q.042.071.13.193c.116.164.295.395.559.683.526.576 1.388 1.38 2.748 2.337z"/><path fill="#F0F1EC" d="M20 6.5a.5.5 0 0 0 0-1zm0-.5v-.5h-.013l-.109.005q-.106.005-.296.028c-.252.033-.609.096-1.05.22-.885.249-2.104.741-3.486 1.713l.575.818c1.284-.903 2.399-1.348 3.181-1.568.392-.11.7-.164.907-.19a4 4 0 0 1 .293-.026H20zm-4.954 1.466c-1.36.956-2.222 1.761-2.748 2.337a7 7 0 0 0-.56.683 4 4 0 0 0-.163.25l-.01.018-.004.006-.001.003v.001L12 11c.441.235.441.236.44.236v.002l.002-.003.017-.029q.026-.044.094-.14c.092-.13.246-.329.483-.588.473-.517 1.278-1.275 2.585-2.194z"/></svg>
